src/modules/70-pipeline/components/Dashboards/CardRailView/EmptyActiveBuilds.svg

<svg fill="none" height="72" viewBox="0 0 72 72" width="72" xmlns="http://www.w3.org/2000/svg"><g fill="#d9dae6"><path d="m30.3651 68.9063h-19.41c-1.16496 0-2.1094-.9445-2.1094-2.1094v-15.4688c0-1.1649.94444-2.1093 2.1094-2.1093h19.41c1.165 0 2.1094.9444 2.1094 2.1093v15.4688c0 1.1649-.9444 2.1094-2.1094 2.1094zm-17.3006-4.2188h15.1913v-11.25h-15.1913z"/><path d="m25.4536 56.9531h-9.4477v4.2188h9.4477z"/><path d="m66.7968 45.4219h-19.4101c-1.1649 0-2.1094-.9445-2.1094-2.1094v-15.4687c0-1.165.9445-2.1094 2.1094-2.1094h19.4101c1.1649 0 2.1093.9444 2.1093 2.1094v15.4687c0 1.1649-.9444 2.1094-2.1093 2.1094zm-17.3007-4.2188h15.1913v-11.25h-15.1913z"/><path d="m61.8853 33.4688h-9.4478v4.2187h9.4478z"/><path d="m66.7968 68.9063h-19.4101c-1.1649 0-2.1094-.9445-2.1094-2.1094v-15.4688c0-1.1649.9445-2.1093 2.1094-2.1093h19.4101c1.1649 0 2.1093.9444 2.1093 2.1093v15.4688c0 1.1649-.9444 2.1094-2.1093 2.1094zm-17.3007-4.2188h15.1913v-11.25h-15.1913z"/><path d="m61.8853 56.9531h-9.4478v4.2188h9.4478z"/><path d="m59.3889 27.8438h-4.2187v-5.3438h-18.2093v-4.2188h20.3187c1.1649 0 2.1093.9445 2.1093 2.1094z"/><path d="m23.1914 36.4219h-4.2187v14.9606h4.2187z"/><path d="m23.6476 38.5311h-5.1651c-.9689 0-1.8132-.6599-2.0471-1.6003l-.6183-2.4868c-.2782-.1044-.5532-.2173-.8246-.3382l-2.2432 1.3387c-.8239.4918-1.8756.3657-2.5598-.307l-3.65227-3.5903c-.70228-.6903-.83334-1.7748-.31598-2.6126l1.34508-2.1779c-.11391-.251-.2205-.505-.31964-.7616l-2.53632-.6095c-.94823-.2279-1.61662-1.0759-1.61662-2.051v-5.0775c0-.9753.66839-1.8232 1.61648-2.0511l2.55066-.6128c.09984-.2562.20714-.5099.32161-.7606l-1.33748-2.1657c-.5175-.8378-.3863-1.9223.31598-2.6126l3.6523-3.59033c.6843-.67247 1.7359-.79889 2.5598-.30713l2.2555 1.34621c.272-.12038.5474-.2326.8259-.33638l.6148-2.47261c.2339-.94036 1.0782-1.60031 2.0471-1.60031h5.1651c.9689 0 1.8132.65995 2.0471 1.60031l.6183 2.48681c.2782.10435.5533.21727.8247.33821l2.2431-1.33875c.8239-.49177 1.8756-.36577 2.5598.30698l3.6523 3.59029c.7023.6903.8333 1.7748.316 2.6127l-1.3451 2.1778c.1139.2511.2203.505.3195.7617l2.5364.6094c.9481.2278 1.6165 1.0758 1.6165 2.0511v5.0775c0 .9752-.6684 1.8232-1.6165 2.051l-2.5508.6129c-.0997.2562-.2071.51-.3216.7605l1.3375 2.1657c.5175.8379.3863 1.9224-.316 2.6127l-3.6523 3.5903c-.6843.6723-1.7359.7989-2.5598.3071l-2.2555-1.3462c-.2719.1204-.5474.2326-.8259.3364l-.6148 2.4726c-.2335.9404-1.0779 1.6003-2.0468 1.6003zm-3.5161-4.2187h1.867l.4988-2.0058c.1834-.7376.7496-1.3195 1.4818-1.5231.7769-.2161 1.5318-.5227 2.2434-.9111.6554-.3575 1.4508-.3424 2.0918.0401l1.8402 1.0984 1.2904-1.2686-1.0761-1.7425c-.4053-.6561-.42-1.4812-.0387-2.1515.3944-.693.7061-1.4286.9268-2.1865.2116-.7266.7965-1.2843 1.5323-1.4612l2.0623-.4954v-1.7526l-2.0517-.4931c-.7383-.1774-1.3241-.7378-1.5342-1.4674-.2183-.7582-.5279-1.4948-.9203-2.1892-.3781-.6695-.3621-1.4916.0419-2.146l1.0816-1.7513-1.2904-1.2684-1.8312 1.0928c-.6429.3837-1.4413.3978-2.0974.0371-.7093-.39-1.4632-.6988-2.2406-.9176-.7294-.2053-1.2926-.7861-1.4754-1.52128l-.5014-2.01586h-1.8671l-.4988 2.00573c-.1833.73761-.7495 1.31951-1.4817 1.52311-.777.2161-1.5318.5227-2.2434.9111-.6553.3576-1.4507.3426-2.0918-.0401l-1.8402-1.0982-1.2904 1.2685 1.0761 1.7425c.4052.6562.42 1.4812.0386 2.1516-.3944.6933-.7062 1.4287-.9267 2.1863-.2115.7267-.7963 1.2844-1.53237 1.4613l-2.06213.4952v1.7526l2.05172.493c.73828.1775 1.32428.7379 1.53418 1.4676.2183.758.5278 1.4944.9203 2.1891.3781.6695.3621 1.4916-.0419 2.1459l-1.0816 1.7514 1.2904 1.2684 1.8312-1.0928c.643-.3839 1.4412-.3981 2.0974-.0371.7094.39 1.4633.6988 2.2406.9176.7294.2053 1.2927.7861 1.4755 1.5213z"/><path d="m21.0816 28.2656c-4.1104 0-7.4546-3.3433-7.4546-7.4531s3.344-7.4531 7.4546-7.4531 7.4547 3.3433 7.4547 7.4531-3.3442 7.4531-7.4547 7.4531zm0-10.6875c-1.7842 0-3.2359 1.4509-3.2359 3.2344s1.4517 3.2344 3.2359 3.2344c1.7843 0 3.2359-1.4509 3.2359-3.2344s-1.4516-3.2344-3.2359-3.2344z"/></g></svg>

<svg width="72" height="72" viewBox="0 0 72 72" fill="none" xmlns="http://www.w3.org/2000/svg">
  <path d="M30.3651 68.9063H10.9551C9.79014 68.9063 8.8457 67.9618 8.8457 66.7969V51.3281C8.8457 50.1632 9.79014 49.2188 10.9551 49.2188H30.3651C31.5301 49.2188 32.4745 50.1632 32.4745 51.3281V66.7969C32.4745 67.9618 31.5301 68.9063 30.3651 68.9063ZM13.0645 64.6875H28.2558V53.4375H13.0645V64.6875Z" fill="#D9DAE6"/>
  <path d="M25.4536 56.9531H16.0059V61.1719H25.4536V56.9531Z" fill="#D9DAE6"/>
  <path d="M66.7968 45.4219H47.3867C46.2218 45.4219 45.2773 44.4774 45.2773 43.3125V27.8438C45.2773 26.6788 46.2218 25.7344 47.3867 25.7344H66.7968C67.9617 25.7344 68.9061 26.6788 68.9061 27.8438V43.3125C68.9061 44.4774 67.9617 45.4219 66.7968 45.4219ZM49.4961 41.2031H64.6874V29.9531H49.4961V41.2031Z" fill="#D9DAE6"/>
  <path d="M61.8853 33.4688H52.4375V37.6875H61.8853V33.4688Z" fill="#D9DAE6"/>
  <path d="M66.7968 68.9063H47.3867C46.2218 68.9063 45.2773 67.9618 45.2773 66.7969V51.3281C45.2773 50.1632 46.2218 49.2188 47.3867 49.2188H66.7968C67.9617 49.2188 68.9061 50.1632 68.9061 51.3281V66.7969C68.9061 67.9618 67.9617 68.9063 66.7968 68.9063ZM49.4961 64.6875H64.6874V53.4375H49.4961V64.6875Z" fill="#D9DAE6"/>
  <path d="M61.8853 56.9531H52.4375V61.1719H61.8853V56.9531Z" fill="#D9DAE6"/>
  <path d="M59.3889 27.8438H55.1702V22.5H36.9609V18.2812H57.2796C58.4445 18.2812 59.3889 19.2257 59.3889 20.3906V27.8438Z" fill="#D9DAE6"/>
  <path d="M23.1914 36.4219H18.9727V51.3825H23.1914V36.4219Z" fill="#D9DAE6"/>
  <path d="M23.6476 38.5311H18.4825C17.5136 38.5311 16.6693 37.8712 16.4354 36.9308L15.8171 34.444C15.5389 34.3396 15.2639 34.2267 14.9925 34.1058L12.7493 35.4445C11.9254 35.9363 10.8737 35.8102 10.1895 35.1375L6.53723 31.5472C5.83495 30.8569 5.70389 29.7724 6.22125 28.9346L7.56633 26.7567C7.45242 26.5057 7.34583 26.2517 7.24669 25.9951L4.71037 25.3856C3.76214 25.1577 3.09375 24.3097 3.09375 23.3346V18.2571C3.09375 17.2818 3.76214 16.4339 4.71023 16.206L7.26089 15.5932C7.36073 15.337 7.46803 15.0833 7.5825 14.8326L6.24502 12.6669C5.72752 11.8291 5.85872 10.7446 6.561 10.0543L10.2133 6.46397C10.8976 5.7915 11.9492 5.66508 12.7731 6.15684L15.0286 7.50305C15.3006 7.38267 15.576 7.27045 15.8545 7.16667L16.4693 4.69406C16.7032 3.7537 17.5475 3.09375 18.5164 3.09375H23.6815C24.6504 3.09375 25.4947 3.7537 25.7286 4.69406L26.3469 7.18087C26.6251 7.28522 26.9002 7.39814 27.1716 7.51908L29.4147 6.18033C30.2386 5.68856 31.2903 5.81456 31.9745 6.48731L35.6268 10.0776C36.3291 10.7679 36.4601 11.8524 35.9428 12.6903L34.5977 14.8681C34.7116 15.1192 34.818 15.3731 34.9172 15.6298L37.4536 16.2392C38.4017 16.467 39.0701 17.315 39.0701 18.2903V23.3678C39.0701 24.343 38.4017 25.191 37.4536 25.4188L34.9028 26.0317C34.8031 26.2879 34.6957 26.5417 34.5812 26.7922L35.9187 28.9579C36.4362 29.7958 36.305 30.8803 35.6027 31.5706L31.9504 35.1609C31.2661 35.8332 30.2145 35.9598 29.3906 35.468L27.1351 34.1218C26.8632 34.2422 26.5877 34.3544 26.3092 34.4582L25.6944 36.9308C25.4609 37.8712 24.6165 38.5311 23.6476 38.5311ZM20.1315 34.3124H21.9985L22.4973 32.3066C22.6807 31.569 23.2469 30.9871 23.9791 30.7835C24.756 30.5674 25.5109 30.2608 26.2225 29.8724C26.8779 29.5149 27.6733 29.53 28.3143 29.9125L30.1545 31.0109L31.4449 29.7423L30.3688 27.9998C29.9635 27.3437 29.9488 26.5186 30.3301 25.8483C30.7245 25.1553 31.0362 24.4197 31.2569 23.6618C31.4685 22.9352 32.0534 22.3775 32.7892 22.2006L34.8515 21.7052V19.9526L32.7998 19.4595C32.0615 19.2821 31.4757 18.7217 31.2656 17.9921C31.0473 17.2339 30.7377 16.4973 30.3453 15.8029C29.9672 15.1334 29.9832 14.3113 30.3872 13.6569L31.4688 11.9056L30.1784 10.6372L28.3472 11.73C27.7043 12.1137 26.9059 12.1278 26.2498 11.7671C25.5405 11.3771 24.7866 11.0683 24.0092 10.8495C23.2798 10.6442 22.7166 10.0634 22.5338 9.32822L22.0324 7.31236H20.1653L19.6665 9.31809C19.4832 10.0557 18.917 10.6376 18.1848 10.8412C17.4078 11.0573 16.653 11.3639 15.9414 11.7523C15.2861 12.1099 14.4907 12.0949 13.8496 11.7122L12.0094 10.614L10.719 11.8825L11.7951 13.625C12.2003 14.2812 12.2151 15.1062 11.8337 15.7766C11.4393 16.4699 11.1275 17.2053 10.907 17.9629C10.6955 18.6896 10.1107 19.2473 9.37463 19.4242L7.3125 19.9194V21.672L9.36422 22.165C10.1025 22.3425 10.6885 22.9029 10.8984 23.6326C11.1167 24.3906 11.4262 25.127 11.8187 25.8217C12.1968 26.4912 12.1808 27.3133 11.7768 27.9676L10.6952 29.719L11.9856 30.9874L13.8168 29.8946C14.4598 29.5107 15.258 29.4965 15.9142 29.8575C16.6236 30.2475 17.3775 30.5563 18.1548 30.7751C18.8842 30.9804 19.4475 31.5612 19.6303 32.2964L20.1315 34.3124Z" fill="#D9DAE6"/>
  <path d="M21.0816 28.2656C16.9712 28.2656 13.627 24.9223 13.627 20.8125C13.627 16.7027 16.971 13.3594 21.0816 13.3594C25.1922 13.3594 28.5363 16.7027 28.5363 20.8125C28.5363 24.9223 25.1921 28.2656 21.0816 28.2656ZM21.0816 17.5781C19.2974 17.5781 17.8457 19.029 17.8457 20.8125C17.8457 22.596 19.2974 24.0469 21.0816 24.0469C22.8659 24.0469 24.3175 22.596 24.3175 20.8125C24.3175 19.029 22.8659 17.5781 21.0816 17.5781Z" fill="#D9DAE6"/>
</svg>
